X: 25156
T: Maisy
R: jig
M: 6/8
K: Eminor
|:gfd ABG|FGA BGG|DGG EGG|DCB, A,B,D|
gfd ABG|FGA BGG|dcB cAG|1 FDF GBd:|2 FDF G2 D||
|:EBE cEB|dcB cBA|EBE cEB|DFD ADd|
EBE cEB|dcB cdc|Bdf gdB|1 AGA BGD:|2 AGA Bdf||

